static/images/improvements-icon.svg

<svg height="187" viewBox="0 0 188 187" width="188" xmlns="http://www.w3.org/2000/svg"><g fill="none" fill-rule="evenodd" transform="translate(2.106 2.834)"><circle cx="117.208" cy="154.76" r="29.247"/><g stroke="#686868"><circle cx="117.208" cy="154.76" r="27.247" stroke-width="4"/><path d="m117.3 136.2v26.998" stroke-width="8"/><path d="m117.3 166.572v6.749" stroke-width="8"/><path d="m136.759 120.893c7.03-5.491 10.234-12.979 11.9-21.466 1.706-8.9 2.413-17.8-1.04-26.374-1.414-3.536-3.869-6.656-5.741-10.067-.550003-.8968718-.75674-1.9625282-.582-3 2.122-7.155 1.331-14.144-1.082-21.008-.440075-.8469667-1.256918-1.43398-2.2-1.581-4.031228-.1053745-8.023645.8103426-11.606 2.662-3.37 1.747-6.614 3.786-10.026 5.491-1.112496.6224421-2.400567.8567648-3.661.666-8.776577-2.1150943-17.8320609-2.8312443-26.832-2.122-4.618.374-9.194 1.165-13.77 1.955-1.8529355.499621-3.8305345.1977197-5.45-.832-4.826-2.954-9.61-6.115-15.309-7.28-1.8887321-.3947615-3.8115608-.6037574-5.741-.624-.8936114.1157873-1.6731713.6635356-2.085 1.465-2.371 6.861-3.24 13.85-1.165 21.005.2603526 1.0259138.0790083 2.1139797-.5 3-7.738 9.443-9.443 20.259-7.7 31.824.7068751 4.9314516 1.9072317 9.779445 3.583 14.471 2.787 7.4 8.486 12.314 15.392 15.933 5.9307366 3.187755 12.4349433 5.167296 19.136 5.824.5457954.065844 1.0873552.163004 1.622.291-1.29 2.621-2.538 5.158-3.744 7.654-.1218257.253512-.2192644.518037-.291.79-1.165 4.035-1.955 4.742-6.24 5.034-2.4701309.297646-4.9591606.40896-7.446.333-5.907-.582-9.485-4.659-12.813-9.069-1.6635342-2.285045-3.5142474-4.427765-5.533-6.406-2.8961697-2.712349-6.9312603-3.845353-10.816-3.037-.79.125-1.872.749-2.038 1.331-.166.624.5 1.581 1 2.288.4266466.550765.9655733 1.004473 1.581 1.331 5.491 3.162 8.278 8.362 10.733 13.894 2.954 6.614 7.946 10.65 15.226 11.232 4.451.333 8.986-.083 13.478-.125h1.914v9.4c0 2-.125 4.035.042 6.032.291 3.7-2.5 6.157-6.7 4.659-25.876-9.439-44.761-26.62-54.661-52.37-11.814-30.826-7.946-60.237 11.19-87.4 10.315-14.603 24.293-24.629 40.849-30.869 13.728-5.2 28.039-6.614 42.723-5.075 17.291874 1.72044452 33.682539 8.54040369 47.091 19.594 14.477522 11.5669765 24.859806 27.4756825 29.619 45.385 3.619 13.478 4.618 27 2.08 40.726-3.567086 20.395062-14.056407 38.93679-29.7 52.5" stroke-linecap="round" stroke-width="5"/></g></g></svg>

<?xml version="1.0" encoding="UTF-8"?>
<svg width="188px" height="187px" viewBox="0 0 188 187" version="1.1" xmlns="http://www.w3.org/2000/svg" xmlns:xlink="http://www.w3.org/1999/xlink">
    <!-- Generator: Sketch 63.1 (92452) - https://sketch.com -->
    <title>improvements-icon</title>
    <desc>Created with Sketch.</desc>
    <g id="Page-1" stroke="none" stroke-width="1" fill="none" fill-rule="evenodd">
        <g id="improvements-icon" transform="translate(2.000000, 2.000000)">
            <g id="Group_3589" transform="translate(0.106000, 0.834000)">
                <g id="Group_3588" transform="translate(87.961000, 125.513000)">
                    <g id="Ellipse_2054">
                        <circle id="Oval" cx="29.247" cy="29.247" r="29.247"></circle>
                        <circle id="Oval" stroke="#686868" stroke-width="4" cx="29.247" cy="29.247" r="27.247"></circle>
                    </g>
                    <line x1="29.339" y1="10.687" x2="29.339" y2="37.685" id="Line_7921" stroke="#686868" stroke-width="8"></line>
                    <line x1="29.339" y1="41.059" x2="29.339" y2="47.808" id="Line_7922" stroke="#686868" stroke-width="8"></line>
                </g>
                <path d="M136.759,120.893 C143.789,115.402 146.993,107.914 148.659,99.427 C150.365,90.527 151.072,81.627 147.619,73.053 C146.205,69.517 143.75,66.397 141.878,62.986 C141.327997,62.0891282 141.12126,61.0234718 141.296,59.986 C143.418,52.831 142.627,45.842 140.214,38.978 C139.773925,38.1310333 138.957082,37.54402 138.014,37.397 C133.982772,37.2916255 129.990355,38.2073426 126.408,40.059 C123.038,41.806 119.794,43.845 116.382,45.55 C115.269504,46.1724421 113.981433,46.4067648 112.721,46.216 C103.944423,44.1009057 94.8889391,43.3847557 85.889,44.094 C81.271,44.468 76.695,45.259 72.119,46.049 C70.2660645,46.548621 68.2884655,46.2467197 66.669,45.217 C61.843,42.263 57.059,39.102 51.36,37.937 C49.4712679,37.5422385 47.5484392,37.3332426 45.619,37.313 C44.7253886,37.4287873 43.9458287,37.9765356 43.534,38.778 C41.163,45.639 40.294,52.628 42.369,59.783 C42.6293526,60.8089138 42.4480083,61.8969797 41.869,62.783 C34.131,72.226 32.426,83.042 34.169,94.607 C34.8758751,99.5384516 36.0762317,104.386445 37.752,109.078 C40.539,116.478 46.238,121.392 53.144,125.011 C59.0747366,128.198755 65.5789433,130.178296 72.28,130.835 C72.8257954,130.900844 73.3673552,130.998004 73.902,131.126 C72.612,133.747 71.364,136.284 70.158,138.78 C70.0361743,139.033512 69.9387356,139.298037 69.867,139.57 C68.702,143.605 67.912,144.312 63.627,144.604 C61.1568691,144.901646 58.6678394,145.01296 56.181,144.937 C50.274,144.355 46.696,140.278 43.368,135.868 C41.7044658,133.582955 39.8537526,131.440235 37.835,129.462 C34.9388303,126.749651 30.9037397,125.616647 27.019,126.425 C26.229,126.55 25.147,127.174 24.981,127.756 C24.815,128.38 25.481,129.337 25.981,130.044 C26.4076466,130.594765 26.9465733,131.048473 27.562,131.375 C33.053,134.537 35.84,139.737 38.295,145.269 C41.249,151.883 46.241,155.919 53.521,156.501 C57.972,156.834 62.507,156.418 66.999,156.376 L68.913,156.376 L68.913,165.776 C68.913,167.776 68.788,169.811 68.955,171.808 C69.246,175.508 66.455,177.965 62.255,176.467 C36.379,167.028 17.494,149.847 7.594,124.097 C-4.22,93.271 -0.352,63.86 18.784,36.697 C29.099,22.094 43.077,12.068 59.633,5.828 C73.361,0.628 87.672,-0.786 102.356,0.753 C119.647874,2.47344452 136.038539,9.29340369 149.447,20.347 C163.924522,31.9139765 174.306806,47.8226825 179.066,65.732 C182.685,79.21 183.684,92.732 181.146,106.458 C177.578914,126.853062 167.089593,145.39479 151.446,158.958" id="Path_15908" stroke="#686868" stroke-width="5" stroke-linecap="round"></path>
            </g>
        </g>
    </g>
</svg>
